X: 827
T: Gezdiğim Dikenli Aşk Yollarında
C: Kadri Şençalar
O: Turkey
F: http://compmusic.upf.edu/node/140
N: huzzam--sarki--nimsofyan--gezdigim_dikenli--kadri_sencalar
N: makam= huzzam
N: form= sarki
N: usul= nimsofyan = 2/4
M: 2/4
L: 1/16
K: C _1/4B _3/4e ^3/4f 
Q: 1/4=75
%%MIDI tuningsystem comma53
ga2g gffe  | fg2f feed  | ef2e eddc  | 
w:  SAZ  |   |   | 
ed7  | ga2g gffe  | fg2f feed  | dgfe dBcd  | 
w:   |   |   |   | 
cB2g fag2  | gg7  | g8  | ga2g gffe  | fg2f feed  | 
w:   |  Of  of   |   |  o   |  o   | 
ef2e eddc  | ed7  | defg fag2  | gf2g g2g2  | 
w:  of   |  of  of   |  SAZ  |  *  Gez di ğim  di  | 
g2g2 g2g2  | gf2e ^f2g2  | z2fg g2ga  | \
w:  ken li  aşk  yol  |  la rın *  da    |  E lim den  bir   | 
gf2e f2ef  | 
w:  kı rık  *  saz  gel  | 
ed3 d2ag/f/  | gf2g g2g2  | g2g2 g2g2  | \
w:  di  geç ti   SAZ  |  *  Gez di ğim  di  |  ken li  aşk  yol  | 
gf2e ^f2g2  | z2fg g2ga  | 
w:  la rın *  da    |  E lim den  bir   | 
gf2e f2ef  | ed3 d2fe/d/  | e2de e2{f}ed  | \
w:  kı rık  *  saz  gel  |  di  geç ti   SAZ  |  *  Ka ra  tâ *  li'  | 
e2e2 {f}ee2d  | 
w:  im den  *  yi ne   | 
ef2g (3fedd2  | z2Bc dd3  | dd3 d2d2  | \
w:  bu  yıl  *  da    |  Ba hâ rı  gör  |  me den  yaz  gel  | 
dc2B e3/2f/e2  | 
w:  di  geç *  ti    | 
e2de e2{f}ed  | e2e2 {f}ee2d  | ef2g (3fedd2  | \
w:  *  Ka ra  tâ *  li'  |  im den  *  yi ne   |  bu  yıl  *  da    | 
z2Bc dd3  | 
w:  Ba hâ rı  gör  | 
dd3 d2d2  | dc2B B4  | |


